images/icons/inst-stroke.svg

<svg width="23" height="23" viewBox="0 0 23 23" fill="none" xmlns="http://www.w3.org/2000/svg">
<path d="M16.3189 0H6.68114C2.99714 0 0 2.99714 0 6.68114V16.3189C0 20.0029 2.99714 23 6.68114 23H16.3189C20.0029 23 23 20.0029 23 16.3189V6.68114C23 2.99714 20.0029 0 16.3189 0ZM21.2031 16.3189C21.2031 19.0121 19.0121 21.2031 16.3189 21.2031H6.68114C3.98794 21.2031 1.79688 19.0121 1.79688 16.3189V6.68114C1.79688 3.98794 3.98794 1.79688 6.68114 1.79688H16.3189C19.0121 1.79688 21.2031 3.98794 21.2031 6.68114V16.3189Z" fill="black"/>
<path d="M11.5 5.30078C8.08171 5.30078 5.30078 8.08171 5.30078 11.5C5.30078 14.9183 8.08171 17.6992 11.5 17.6992C14.9183 17.6992 17.6992 14.9183 17.6992 11.5C17.6992 8.08171 14.9183 5.30078 11.5 5.30078ZM11.5 15.9023C9.07256 15.9023 7.09766 13.9274 7.09766 11.5C7.09766 9.07256 9.07256 7.09766 11.5 7.09766C13.9274 7.09766 15.9023 9.07256 15.9023 11.5C15.9023 13.9274 13.9274 15.9023 11.5 15.9023Z" fill="black"/>
<path d="M17.7891 6.10938C18.2853 6.10938 18.6875 5.70713 18.6875 5.21094C18.6875 4.71474 18.2853 4.3125 17.7891 4.3125C17.2929 4.3125 16.8906 4.71474 16.8906 5.21094C16.8906 5.70713 17.2929 6.10938 17.7891 6.10938Z" fill="black"/>
</svg>

<svg width="23" height="23" fill="none" xmlns="http://www.w3.org/2000/svg"><path d="M16.319 0H6.68A6.689 6.689 0 000 6.681v9.638A6.689 6.689 0 006.681 23h9.638A6.689 6.689 0 0023 16.319V6.68A6.689 6.689 0 0016.319 0zm4.884 16.319a4.89 4.89 0 01-4.884 4.884H6.68a4.89 4.89 0 01-4.884-4.884V6.68A4.89 4.89 0 016.68 1.797h9.638a4.89 4.89 0 014.884 4.884v9.638z" fill="#000"/><path d="M11.5 5.3c-3.418 0-6.2 2.782-6.2 6.2s2.782 6.2 6.2 6.2 6.2-2.782 6.2-6.2-2.782-6.2-6.2-6.2zm0 10.602A4.407 4.407 0 017.098 11.5 4.407 4.407 0 0111.5 7.098a4.407 4.407 0 014.402 4.402 4.407 4.407 0 01-4.402 4.402zm6.29-9.792a.898.898 0 100-1.797.898.898 0 000 1.796z" fill="#000"/></svg>
